images/svg/header-left-bg.svg

<svg width="530" height="129" viewBox="0 0 530 129" fill="none" xmlns="http://www.w3.org/2000/svg">
<g opacity="0.25">
<path d="M529.5 40C529.5 42.5213 527.806 45.0875 524.319 47.659C520.846 50.2209 515.692 52.713 509.007 55.0989C495.642 59.8685 476.275 64.1724 452.309 67.7899C404.385 75.0237 338.161 79.5 265 79.5C191.839 79.5 125.615 75.0237 77.6913 67.7899C53.7254 64.1724 34.3581 59.8685 20.9931 55.0989C14.3075 52.713 9.15368 50.2209 5.68067 47.659C2.19447 45.0875 0.5 42.5213 0.5 40C0.5 37.4787 2.19447 34.9125 5.68067 32.341C9.15368 29.7791 14.3075 27.287 20.9931 24.9011C34.3581 20.1315 53.7254 15.8276 77.6913 12.2101C125.615 4.97631 191.839 0.5 265 0.5C338.161 0.5 404.385 4.97631 452.309 12.2101C476.275 15.8276 495.642 20.1315 509.007 24.9011C515.692 27.287 520.846 29.7791 524.319 32.341C527.806 34.9125 529.5 37.4787 529.5 40Z" stroke="white"/>
<path d="M529.5 52C529.5 54.5213 527.806 57.0875 524.319 59.659C520.846 62.2209 515.692 64.713 509.007 67.0989C495.642 71.8685 476.275 76.1724 452.309 79.7899C404.385 87.0237 338.161 91.5 265 91.5C191.839 91.5 125.615 87.0237 77.6913 79.7899C53.7254 76.1724 34.3581 71.8685 20.9931 67.0989C14.3075 64.713 9.15368 62.2209 5.68067 59.659C2.19447 57.0875 0.5 54.5213 0.5 52C0.5 49.4787 2.19447 46.9125 5.68067 44.341C9.15368 41.7791 14.3075 39.287 20.9931 36.9011C34.3581 32.1315 53.7254 27.8276 77.6913 24.2101C125.615 16.9763 191.839 12.5 265 12.5C338.161 12.5 404.385 16.9763 452.309 24.2101C476.275 27.8276 495.642 32.1315 509.007 36.9011C515.692 39.287 520.846 41.7791 524.319 44.341C527.806 46.9125 529.5 49.4787 529.5 52Z" stroke="white"/>
<path d="M529.5 65C529.5 67.5213 527.806 70.0875 524.319 72.659C520.846 75.2209 515.692 77.713 509.007 80.0989C495.642 84.8685 476.275 89.1724 452.309 92.7899C404.385 100.024 338.161 104.5 265 104.5C191.839 104.5 125.615 100.024 77.6913 92.7899C53.7254 89.1724 34.3581 84.8685 20.9931 80.0989C14.3075 77.713 9.15368 75.2209 5.68067 72.659C2.19447 70.0875 0.5 67.5213 0.5 65C0.5 62.4787 2.19447 59.9125 5.68067 57.341C9.15368 54.7791 14.3075 52.287 20.9931 49.9011C34.3581 45.1315 53.7254 40.8276 77.6913 37.2101C125.615 29.9763 191.839 25.5 265 25.5C338.161 25.5 404.385 29.9763 452.309 37.2101C476.275 40.8276 495.642 45.1315 509.007 49.9011C515.692 52.287 520.846 54.7791 524.319 57.341C527.806 59.9125 529.5 62.4787 529.5 65Z" stroke="white"/>
<path d="M529.5 77C529.5 79.5213 527.806 82.0875 524.319 84.659C520.846 87.2209 515.692 89.713 509.007 92.0989C495.642 96.8685 476.275 101.172 452.309 104.79C404.385 112.024 338.161 116.5 265 116.5C191.839 116.5 125.615 112.024 77.6913 104.79C53.7254 101.172 34.3581 96.8685 20.9931 92.0989C14.3075 89.713 9.15368 87.2209 5.68067 84.659C2.19447 82.0875 0.5 79.5213 0.5 77C0.5 74.4787 2.19447 71.9125 5.68067 69.341C9.15368 66.7791 14.3075 64.287 20.9931 61.9011C34.3581 57.1315 53.7254 52.8276 77.6913 49.2101C125.615 41.9763 191.839 37.5 265 37.5C338.161 37.5 404.385 41.9763 452.309 49.2101C476.275 52.8276 495.642 57.1315 509.007 61.9011C515.692 64.287 520.846 66.7791 524.319 69.341C527.806 71.9125 529.5 74.4787 529.5 77Z" stroke="white"/>
<path d="M529.5 89C529.5 91.5213 527.806 94.0875 524.319 96.659C520.846 99.2209 515.692 101.713 509.007 104.099C495.642 108.868 476.275 113.172 452.309 116.79C404.385 124.024 338.161 128.5 265 128.5C191.839 128.5 125.615 124.024 77.6913 116.79C53.7254 113.172 34.3581 108.868 20.9931 104.099C14.3075 101.713 9.15368 99.2209 5.68067 96.659C2.19447 94.0875 0.5 91.5213 0.5 89C0.5 86.4787 2.19447 83.9125 5.68067 81.341C9.15368 78.7791 14.3075 76.287 20.9931 73.9011C34.3581 69.1315 53.7254 64.8276 77.6913 61.2101C125.615 53.9763 191.839 49.5 265 49.5C338.161 49.5 404.385 53.9763 452.309 61.2101C476.275 64.8276 495.642 69.1315 509.007 73.9011C515.692 76.287 520.846 78.7791 524.319 81.341C527.806 83.9125 529.5 86.4787 529.5 89Z" stroke="white"/>
</g>
</svg>

<svg xmlns="http://www.w3.org/2000/svg" width="530" height="129" fill="none"><g stroke="#fff" opacity=".25"><path d="M529.5 40c0 2.521-1.694 5.087-5.181 7.659-3.473 2.562-8.627 5.054-15.312 7.44-13.365 4.77-32.732 9.073-56.698 12.69C404.385 75.025 338.161 79.5 265 79.5S125.615 75.024 77.691 67.79c-23.966-3.618-43.333-7.922-56.698-12.691-6.685-2.386-11.84-4.878-15.312-7.44C2.194 45.087.5 42.521.5 40s1.694-5.087 5.18-7.659c3.474-2.562 8.627-5.054 15.313-7.44 13.365-4.77 32.732-9.073 56.698-12.69C125.615 4.975 191.84.5 265 .5s139.385 4.476 187.309 11.71c23.966 3.618 43.333 7.921 56.698 12.691 6.685 2.386 11.839 4.878 15.312 7.44 3.487 2.572 5.181 5.138 5.181 7.659Z"/><path d="M529.5 52c0 2.521-1.694 5.087-5.181 7.659-3.473 2.562-8.627 5.054-15.312 7.44-13.365 4.77-32.732 9.073-56.698 12.69C404.385 87.025 338.161 91.5 265 91.5S125.615 87.024 77.691 79.79c-23.966-3.618-43.333-7.922-56.698-12.691-6.685-2.386-11.84-4.878-15.312-7.44C2.194 57.087.5 54.521.5 52s1.694-5.087 5.18-7.659c3.474-2.562 8.627-5.054 15.313-7.44 13.365-4.77 32.732-9.073 56.698-12.69C125.615 16.975 191.84 12.5 265 12.5s139.385 4.476 187.309 11.71c23.966 3.618 43.333 7.922 56.698 12.691 6.685 2.386 11.839 4.878 15.312 7.44 3.487 2.572 5.181 5.138 5.181 7.659Z"/><path d="M529.5 65c0 2.521-1.694 5.088-5.181 7.659-3.473 2.562-8.627 5.054-15.312 7.44-13.365 4.77-32.732 9.073-56.698 12.69C404.385 100.025 338.161 104.5 265 104.5s-139.385-4.476-187.309-11.71c-23.966-3.618-43.333-7.922-56.698-12.691-6.685-2.386-11.84-4.878-15.312-7.44C2.194 70.087.5 67.521.5 65s1.694-5.087 5.18-7.659c3.474-2.562 8.627-5.054 15.313-7.44 13.365-4.77 32.732-9.073 56.698-12.69C125.615 29.975 191.84 25.5 265 25.5s139.385 4.476 187.309 11.71c23.966 3.618 43.333 7.922 56.698 12.691 6.685 2.386 11.839 4.878 15.312 7.44 3.487 2.572 5.181 5.138 5.181 7.659Z"/><path d="M529.5 77c0 2.521-1.694 5.088-5.181 7.659-3.473 2.562-8.627 5.054-15.312 7.44-13.365 4.77-32.732 9.073-56.698 12.691C404.385 112.024 338.161 116.5 265 116.5s-139.385-4.476-187.309-11.71c-23.966-3.618-43.333-7.922-56.698-12.691-6.685-2.386-11.84-4.878-15.312-7.44C2.194 82.087.5 79.521.5 77s1.694-5.088 5.18-7.659c3.474-2.562 8.627-5.054 15.313-7.44 13.365-4.77 32.732-9.073 56.698-12.69C125.615 41.975 191.84 37.5 265 37.5s139.385 4.476 187.309 11.71c23.966 3.618 43.333 7.922 56.698 12.691 6.685 2.386 11.839 4.878 15.312 7.44 3.487 2.572 5.181 5.138 5.181 7.659Z"/><path d="M529.5 89c0 2.521-1.694 5.088-5.181 7.659-3.473 2.562-8.627 5.054-15.312 7.44-13.365 4.769-32.732 9.073-56.698 12.691C404.385 124.024 338.161 128.5 265 128.5s-139.385-4.476-187.309-11.71c-23.966-3.618-43.333-7.922-56.698-12.691-6.685-2.386-11.84-4.878-15.312-7.44C2.194 94.087.5 91.521.5 89s1.694-5.088 5.18-7.659c3.474-2.562 8.627-5.054 15.313-7.44 13.365-4.77 32.732-9.073 56.698-12.69C125.615 53.975 191.84 49.5 265 49.5s139.385 4.476 187.309 11.71c23.966 3.618 43.333 7.922 56.698 12.691 6.685 2.386 11.839 4.878 15.312 7.44 3.487 2.572 5.181 5.138 5.181 7.659Z"/></g></svg>
